X:1
T:Title
%%score 1 2
L:1/8
M:4/2
K:C
V:1 treble-8 nm="Part_1"
V:2 bass nm="Part_2"
V:1
 G8 B8 | B4 c4 d2 B2 A4 | G8 z4 e4 | e4 d2 c2 B2 e2 d4 |[M:6/2] c8 e4 d4 e4 e4 | %5
 c4 c4 c4 d6 f2 e4 | d4 d4 B4 A4 A4 B4 | G4 G4 G4 A6 c2 B4 | A4 A4 c4 c6 A2 d4 | %9
 e4 e4 d4 c6 B2 A4 |[M:4/2] B4 B4 z4 B4 | cBcd BABc A2 A2 z2 d2- | d2 cB A2 A2 z2 A4 BB | %13
 c2 c2 z2 c4 ce d4 | e8 z4 E4 | ^F>GF>G A>B A2 ^G4 z2 B2 | c>dc>d e>f e2 d2 B2 c>cB>A | %17
 G>GGG A>AAc B2 e2 d3 d | c4 z2 c2 c2 B>A G>cBG | A2 _B2 A3 A G4 z2 dd | %20
 ^c2 d2 e2 AA ^G>G A2 =c3 c | c4 z2 G2 ABcB ABcA | BAGA Bc d4 BG A3 A |[M:6/2] B8 d4 e8 d4 | %24
 ^c4 c4 c4 d2 =c2 B2 A2 G4 | d4 d4 ^c4 d8 d4 | c8 B4 A4 A4 A4 | c2 B2 A2 G2 ^F4 G4 A6 A2 | %28
[M:4/2] G4 z2 dd ^c2 d2 e2 AA | ^G>G A2 c3 c c4 z2 =G2 | ABcB ABcA BAGA Bc d2- | %31
[M:4/4] d2 BG A3 A |[M:6/2] B8 d4 e8 d4 | ^c4 c4 c4 d2 =c2 B2 A2 G4 | d4 d4 ^c4 d8 d4 | %35
 c8 B4 A4 A4 A4 | c2 B2 A2 G2 ^F4 G4 A6 A2 |[M:4/2] G16 |] %38
V:2
 z8 z4 G,4 | G,4 F,2 E,2 D,8 | G,,4 C,4 E,8 | E,4 F,4 G,8 |[M:6/2] C,8 C,4 G,4 G,4 E,4 | %5
 F,4 G,4 A,4 G,6 D,2 A,4 | D,4 D,4 G,,4 D,4 D,4 B,,4 | C,4 C,4 E,4 D,6 A,,2 E,4 | %8
 A,,4 A,,4 E,4 C,6 F,2 G,4 | C,4 C,4 G,4 C,6 G,,2 D,4 |[M:4/2] G,,4 G,,4 z4 G,4 | %11
 F,3 D, E,3 C, D,2 D,2 z2 B,,2- | B,,2 C,2 D,2 D,2 z2 F,4 E,D, | C,2 C,2 z2 F,4 F,E, G,4 | %14
 C,8 z4 C,4 | D,4 A,,4 E,4 E,4 | A,4 E,4 G,2 G,2 C,2 D,2 | E,2 E,2 D,2 C,2 G,2 C,2 G,4 | %18
 C,2 F,2 F,2 E,D, C,2 G,2 C,2 G,2 | D,6 D,2 G,,2 G,2 ^F,2 G,2 | %20
 A,2 D,2 ^C,2 D,2 E,2 A,,F, E,2 F,2 | C,2 A,,2 C,4 F,,4 F,4 | E,4 G,2 B,,2 D,8 | %23
[M:6/2] G,,8 G,,4 C,8 D,4 | A,,4 A,,4 A,4 G,6 F,2 E,4 | D,4 G,4 A,4 D,8 D,4 | F,8 G,4 D,4 D,4 D,4 | %27
 C,6 B,,2 A,,4 G,,4 C,4 D,4 |[M:4/2] G,,2 G,2 ^F,2 G,2 A,2 D,2 ^C,2 D,2 | %29
 E,2 A,,F, E,2 F,2 C,2 A,,2 C,4 | F,,4 F,4 E,4 G,2 B,,2 |[M:4/4] D,8 |[M:6/2] G,,8 G,,4 C,8 D,4 | %33
 A,,4 A,,4 A,4 G,6 F,2 E,4 | D,4 G,4 A,4 D,8 D,4 | F,8 G,4 D,4 D,4 D,4 | C,6 B,,2 A,,4 G,,4 C,8 | %37
[M:4/2] G,,16 |] %38

